X: 3123
Q:"Strathspey."
M: C
L: 1/8
K: C
[|\
vc<c ve>c vg>vcue>uc | G>AG>F (E<G)G2 |\
c<c e>c g>ce>c | d>ed>c (B<d)d2 |\
c<c e>c g>ce>c | G>AG>F (E<G) G>c |\
[|\
vg>ug ve>ug va>vgue>uc | G>AG>F (E<G)G2 |\
g<g e>g a>ge>c | d>ed>c (B<d)d2 |\
g<g e>g a>ge>c | G>AG>F (E<G) (G<c) |\
(3agf (3gfe (3fed (3edc | B<d g>f (e<c)c2 |]


